static/images/mobile/copyright/wikipedia-wordmark-bjn.svg

<?xml version="1.0" encoding="UTF-8"?>
<svg width="98px" height="32px" viewBox="0 0 98 32" version="1.1" xmlns="http://www.w3.org/2000/svg" xmlns:xlink="http://www.w3.org/1999/xlink">
    <title>bjn-wordmark</title>
    <g id="Page-1" stroke="none" stroke-width="1" fill="none" fill-rule="evenodd">
        <path d="M97.5395189,23.0927835 C97.5395189,24.9621993 96.7697595,26.9415808 95.3402062,28.8109966 C93.6907216,30.9003436 91.8213058,32 89.6219931,32 C88.8522337,32 87.9725086,31.8900344 87.2027491,31.7800687 C86.5429553,31.6701031 85.7731959,31.4501718 84.7835052,31.1202749 C84.0137457,30.9003436 83.2439863,30.5704467 82.4742268,30.3505155 L82.8041237,29.6907216 C83.4639175,29.8006873 84.233677,30.0206186 84.8934708,30.1305842 C85.6632302,30.3505155 86.3230241,30.3505155 86.8728522,30.3505155 C88.3024055,30.3505155 89.7319588,30.0206186 91.0515464,29.2508591 C92.0412371,28.7010309 93.1408935,27.8213058 94.1305842,26.8316151 C94.6804124,26.2817869 95.3402062,25.4020619 96.3298969,24.1924399 C94.6804124,24.1924399 93.4707904,23.9725086 92.7010309,23.4226804 C91.8213058,22.8728522 91.2714777,21.8831615 91.2714777,20.6735395 C91.2714777,19.4639175 91.6013746,18.3642612 92.1512027,17.3745704 C92.8109966,16.1649485 93.6907216,15.6151203 94.6804124,15.6151203 C95.7800687,15.6151203 96.4398625,16.1649485 96.9896907,17.3745704 C97.3195876,18.2542955 97.5395189,19.5738832 97.5395189,21.2233677 L97.5395189,23.0927835 Z M96.3298969,21.2233677 C96.1099656,20.1237113 95.7800687,19.3539519 95.3402062,18.9140893 C95.0103093,18.5841924 94.5704467,18.3642612 94.1305842,18.3642612 C93.8006873,18.3642612 93.4707904,18.4742268 93.2508591,18.6941581 C93.0309278,18.9140893 92.9209622,19.1340206 92.9209622,19.4639175 C92.9209622,20.0137457 93.1408935,20.4536082 93.6907216,20.7835052 C94.2405498,21.0034364 95.1202749,21.2233677 96.3298969,21.2233677 L96.3298969,21.2233677 Z M81.4845361,24.0824742 L71.1477663,24.0824742 L71.1477663,21.1134021 L80.1649485,21.1134021 C80.1649485,19.7938144 79.9450172,18.6941581 79.6151203,18.0343643 C79.395189,17.4845361 78.8453608,16.8247423 77.9656357,15.8350515 L79.395189,12.975945 C80.2749141,14.0756014 80.8247423,14.8453608 81.0446735,15.395189 C81.3745704,16.2749141 81.4845361,17.814433 81.4845361,19.7938144 L81.4845361,24.0824742 Z M81.3745704,27.6013746 L79.9450172,30.1305842 L76.975945,28.5910653 L78.2955326,26.0618557 L81.3745704,27.6013746 Z M77.1958763,29.1408935 L75.766323,31.6701031 L72.7972509,30.2405498 L74.1168385,27.7113402 L77.1958763,29.1408935 Z M72.3573883,24.0824742 L56.5223368,24.0824742 L56.5223368,21.1134021 L70.2680412,21.1134021 C69.3883162,19.9037801 68.5085911,18.8041237 67.4089347,17.9243986 C66.3092784,17.0446735 64.8797251,16.0549828 63.0103093,14.9553265 L62.4604811,15.5051546 L60.371134,13.9656357 C59.6013746,13.4158076 59.2714777,12.8659794 59.2714777,12.5360825 C59.2714777,10.556701 59.8213058,9.01718213 60.8109966,7.80756014 C61.8006873,6.81786942 63.3402062,5.82817869 65.6494845,4.94845361 L70.7079038,3.0790378 L70.7079038,6.04810997 L66.9690722,7.25773196 C65.4295533,7.6975945 64.2199313,8.13745704 63.3402062,8.57731959 C62.1305842,9.12714777 61.580756,9.45704467 61.580756,9.67697595 C61.580756,9.89690722 62.0206186,10.3367698 62.790378,10.8865979 C63.2302405,11.2164948 63.7800687,11.5463918 64.2199313,11.8762887 C66.0893471,13.1958763 67.628866,14.6254296 69.0584192,16.0549828 C70.4879725,17.5945017 71.6975945,19.2439863 72.5773196,20.8934708 L72.5773196,24.0824742 L72.3573883,24.0824742 Z M57.7319588,24.0824742 L47.395189,24.0824742 L47.395189,21.1134021 L56.4123711,21.1134021 C56.4123711,19.7938144 56.1924399,18.6941581 55.862543,18.0343643 C55.6426117,17.4845361 55.0927835,16.8247423 54.2130584,15.8350515 L55.6426117,12.975945 C56.5223368,14.0756014 57.0721649,14.8453608 57.2920962,15.395189 C57.6219931,16.2749141 57.7319588,17.814433 57.7319588,19.7938144 L57.7319588,24.0824742 Z M57.7319588,27.6013746 L56.3024055,30.1305842 L53.3333333,28.5910653 L54.652921,26.0618557 L57.7319588,27.6013746 Z M53.5532646,29.1408935 L52.1237113,31.6701031 L49.1546392,30.2405498 L50.4742268,27.7113402 L53.5532646,29.1408935 Z M48.7147766,24.0824742 L37.7182131,24.0824742 L37.7182131,21.1134021 L43.8762887,21.1134021 C44.6460481,21.1134021 45.3058419,21.1134021 45.7457045,21.0034364 C46.2955326,21.0034364 46.8453608,20.8934708 47.5051546,20.6735395 C45.4158076,20.3436426 44.0962199,20.1237113 43.4364261,19.9037801 C42.0068729,19.3539519 41.347079,18.3642612 41.347079,16.9347079 C41.347079,15.7250859 41.6769759,14.6254296 42.3367698,13.5257732 C43.1065292,12.3161512 43.9862543,11.6563574 45.0859107,11.6563574 C46.2955326,11.6563574 47.2852234,12.4261168 47.9450172,13.9656357 C48.4948454,15.1752577 48.7147766,16.604811 48.7147766,18.1443299 L48.7147766,24.0824742 L48.7147766,24.0824742 Z M47.0652921,18.0343643 C46.7353952,17.1546392 46.5154639,16.3848797 46.2955326,15.9450172 C45.7457045,15.0652921 45.1958763,14.6254296 44.5360825,14.6254296 C44.2061856,14.6254296 43.8762887,14.7353952 43.6563574,14.9553265 C43.4364261,15.1752577 43.3264605,15.5051546 43.3264605,15.8350515 C43.3264605,16.7147766 43.766323,17.2646048 44.7560137,17.5945017 C44.975945,17.814433 45.8556701,17.9243986 47.0652921,18.0343643 L47.0652921,18.0343643 Z M43.9862543,1.5395189 L42.556701,4.06872852 L39.6975945,2.52920962 L41.0171821,0 L43.9862543,1.5395189 Z M47.5051546,4.6185567 L46.0756014,7.14776632 L43.1065292,5.60824742 L44.4261168,3.0790378 L47.5051546,4.6185567 Z M43.4364261,6.1580756 L42.0068729,8.68728522 L39.0378007,7.25773196 L40.3573883,4.72852234 L43.4364261,6.1580756 Z M38.9278351,24.0824742 L28.5910653,24.0824742 L28.5910653,21.1134021 L37.6082474,21.1134021 C37.6082474,19.7938144 37.3883162,18.6941581 37.0584192,18.0343643 C36.838488,17.4845361 36.2886598,16.8247423 35.4089347,15.8350515 L36.838488,12.975945 C37.7182131,14.0756014 38.2680412,14.8453608 38.4879725,15.395189 C38.8178694,16.2749141 38.9278351,17.814433 38.9278351,19.7938144 L38.9278351,24.0824742 L38.9278351,24.0824742 Z M38.8178694,27.6013746 L37.3883162,30.1305842 L34.419244,28.5910653 L35.7388316,26.0618557 L38.8178694,27.6013746 Z M34.7491409,29.1408935 L33.3195876,31.6701031 L30.3505155,30.2405498 L31.6701031,27.7113402 L34.7491409,29.1408935 Z M29.9106529,24.0824742 L21.7731959,24.0824742 C21.1134021,24.0824742 20.4536082,23.862543 19.9037801,23.532646 C19.3539519,23.2027491 19.1340206,22.652921 19.1340206,22.2130584 C19.1340206,21.7731959 19.1340206,21.3333333 19.2439863,21.0034364 C19.2439863,20.6735395 19.3539519,20.233677 19.4639175,19.7938144 L19.9037801,19.7938144 C20.0137457,20.233677 20.233677,20.5635739 20.6735395,20.7835052 C21.0034364,21.0034364 21.3333333,21.0034364 21.8831615,21.0034364 L28.9209622,21.0034364 C28.9209622,18.9140893 28.5910653,17.2646048 28.0412371,16.0549828 C27.2714777,14.5154639 26.0618557,13.4158076 24.3024055,12.8659794 L24.5223368,9.45704467 C26.6116838,10.4467354 28.0412371,11.9862543 28.9209622,14.185567 C29.580756,15.9450172 30.0206186,18.1443299 30.0206186,21.0034364 L30.0206186,24.0824742 L29.9106529,24.0824742 Z M17.3745704,24.0824742 L7.03780069,24.0824742 L7.03780069,21.1134021 L16.0549828,21.1134021 C16.0549828,19.7938144 15.8350515,18.6941581 15.5051546,18.0343643 C15.2852234,17.4845361 14.7353952,16.8247423 13.8556701,15.8350515 L15.2852234,12.975945 C16.1649485,14.0756014 16.7147766,14.8453608 16.9347079,15.395189 C17.2646048,16.2749141 17.3745704,17.814433 17.3745704,19.7938144 L17.3745704,24.0824742 L17.3745704,24.0824742 Z M17.2646048,27.6013746 L15.8350515,30.1305842 L12.8659794,28.5910653 L14.185567,26.0618557 L17.2646048,27.6013746 Z M13.0859107,29.1408935 L11.6563574,31.6701031 L8.68728522,30.2405498 L10.0068729,27.7113402 L13.0859107,29.1408935 Z M8.24742268,24.0824742 L5.71821306,24.0824742 C4.94845361,24.0824742 4.28865979,23.7525773 3.73883162,23.0927835 C3.29896907,22.5429553 2.96907216,21.6632302 2.74914089,20.5635739 C2.52920962,19.4639175 2.30927835,18.1443299 2.19931271,16.4948454 C2.08934708,15.1752577 2.08934708,13.8556701 1.97938144,12.4261168 C1.86941581,10.9965636 1.75945017,10.0068729 1.64948454,9.34707904 C1.5395189,8.68728522 1.31958763,8.02749141 1.09965636,7.58762887 C0.879725086,7.03780069 0.439862543,6.59793814 0,6.1580756 L2.19931271,2.74914089 C2.63917526,4.17869416 2.96907216,5.82817869 3.18900344,7.6975945 C3.29896907,8.90721649 3.40893471,11.766323 3.51890034,16.2749141 C3.73883162,18.3642612 4.06872852,19.6838488 4.50859107,20.233677 C4.83848797,20.6735395 5.16838488,21.0034364 5.60824742,21.0034364 L8.13745704,21.0034364 L8.13745704,24.0824742 L8.24742268,24.0824742 Z" id="bjn-wordmark" fill="#000000" fill-rule="nonzero"></path>
    </g>
</svg>

<svg xmlns="http://www.w3.org/2000/svg" width="98" height="32"><path fill="#000" fill-rule="nonzero" d="M97.54 23.093c0 1.87-.77 3.849-2.2 5.718C93.69 30.901 91.821 32 89.622 32c-.77 0-1.65-.11-2.42-.22-.659-.11-1.429-.33-2.418-.66-.77-.22-1.54-.55-2.31-.77l.33-.66c.66.11 1.43.33 2.09.44.77.22 1.429.22 1.979.22 1.43 0 2.859-.33 4.179-1.1.99-.549 2.089-1.429 3.079-2.418.55-.55 1.21-1.43 2.199-2.64-1.65 0-2.86-.22-3.629-.77-.88-.55-1.43-1.539-1.43-2.748 0-1.21.33-2.31.88-3.3.66-1.21 1.54-1.759 2.53-1.759 1.1 0 1.759.55 2.309 1.76.33.88.55 2.199.55 3.848v1.87Zm-1.21-1.87c-.22-1.1-.55-1.869-.99-2.309-.33-.33-.77-.55-1.21-.55-.33 0-.66.11-.88.33-.22.22-.329.44-.329.77 0 .55.22.99.77 1.32.55.22 1.43.44 2.639.44Zm-14.845 2.86H71.148v-2.97h9.017c0-1.32-.22-2.419-.55-3.079-.22-.55-.77-1.21-1.65-2.199l1.43-2.86c.88 1.1 1.43 1.87 1.65 2.42.33.88.44 2.42.44 4.399v4.288Zm-.11 3.518-1.43 2.53-2.97-1.54 1.32-2.53 3.08 1.54Zm-4.18 1.54-1.429 2.53-2.969-1.43 1.32-2.53 3.079 1.43Zm-4.838-5.059H56.522v-2.969h13.746c-.88-1.21-1.76-2.309-2.86-3.189-1.099-.88-2.528-1.869-4.398-2.969l-.55.55-2.089-1.54c-.77-.55-1.1-1.099-1.1-1.429 0-1.98.55-3.519 1.54-4.728.99-.99 2.53-1.98 4.838-2.86l5.059-1.869v2.97l-3.739 1.209c-1.54.44-2.75.88-3.629 1.32-1.21.55-1.76.879-1.76 1.099 0 .22.44.66 1.21 1.21.44.33.99.66 1.43.99 1.87 1.319 3.409 2.748 4.838 4.178 1.43 1.54 2.64 3.189 3.52 4.838v3.19h-.22Zm-14.625 0H47.395v-2.969h9.017c0-1.32-.22-2.419-.55-3.079-.22-.55-.77-1.21-1.649-2.199l1.43-2.86c.88 1.1 1.43 1.87 1.65 2.42.329.88.439 2.42.439 4.399v4.288Zm0 3.52-1.43 2.529-2.969-1.54 1.32-2.53 3.079 1.54Zm-4.179 1.539-1.43 2.53-2.968-1.43 1.32-2.53 3.078 1.43Zm-4.838-5.059H37.718v-2.969h6.158c.77 0 1.43 0 1.87-.11.55 0 1.1-.11 1.76-.33-2.09-.33-3.41-.55-4.07-.77-1.43-.549-2.089-1.539-2.089-2.968 0-1.21.33-2.31.99-3.41.77-1.209 1.65-1.869 2.749-1.869 1.21 0 2.2.77 2.859 2.31.55 1.21.77 2.639.77 4.178v5.938Zm-1.65-6.048c-.33-.88-.55-1.65-.77-2.089-.55-.88-1.1-1.32-1.759-1.32-.33 0-.66.11-.88.33-.22.22-.33.55-.33.88 0 .88.44 1.43 1.43 1.76.22.22 1.1.33 2.31.44ZM43.986 1.54l-1.43 2.529-2.858-1.54L41.018 0l2.968 1.54Zm3.52 3.079-1.43 2.529-2.97-1.54 1.32-2.529 3.08 1.54Zm-4.07 1.54-1.43 2.528-2.968-1.43 1.32-2.528 3.078 1.43Zm-4.508 17.923H28.59v-2.969h9.017c0-1.32-.22-2.419-.55-3.079-.22-.55-.77-1.21-1.65-2.199l1.43-2.86c.88 1.1 1.43 1.87 1.65 2.42.33.88.44 2.42.44 4.399v4.288Zm-.11 3.52-1.43 2.529-2.969-1.54 1.32-2.53 3.079 1.54Zm-4.069 1.539-1.43 2.53-2.968-1.43 1.32-2.53 3.078 1.43Zm-4.838-5.059h-8.138c-.66 0-1.32-.22-1.87-.55-.549-.33-.769-.88-.769-1.319 0-.44 0-.88.11-1.21 0-.33.11-.77.22-1.21h.44c.11.44.33.77.77.99.33.22.66.22 1.21.22h7.037c0-2.089-.33-3.738-.88-4.948-.77-1.54-1.98-2.64-3.739-3.189l.22-3.409c2.09.99 3.52 2.53 4.399 4.729.66 1.759 1.1 3.958 1.1 6.817v3.08h-.11Zm-12.536 0H7.038v-2.969h9.017c0-1.32-.22-2.419-.55-3.079-.22-.55-.77-1.21-1.65-2.199l1.43-2.86c.88 1.1 1.43 1.87 1.65 2.42.33.88.44 2.42.44 4.399v4.288Zm-.11 3.52-1.43 2.529-2.969-1.54 1.32-2.53 3.079 1.54Zm-4.18 1.539-1.429 2.53-2.969-1.43 1.32-2.53 3.079 1.43Zm-4.838-5.059H5.718c-.77 0-1.43-.33-1.98-.99-.439-.549-.769-1.429-.989-2.528-.22-1.1-.44-2.42-.55-4.07-.11-1.319-.11-2.638-.22-4.068-.11-1.43-.22-2.42-.33-3.079-.11-.66-.33-1.32-.55-1.76C.88 7.038.44 6.598 0 6.159L2.2 2.75c.44 1.43.77 3.08.989 4.949.11 1.21.22 4.068.33 8.577.22 2.09.55 3.409.99 3.959.33.44.66.77 1.1.77h2.528v3.078h.11Z"/></svg>
